images/no_mess_icon_active.svg

<?xml version="1.0" encoding="UTF-8"?>
<svg width="23px" height="36px" viewBox="0 0 23 36" version="1.1" xmlns="http://www.w3.org/2000/svg" xmlns:xlink="http://www.w3.org/1999/xlink">
    <!-- Generator: Sketch 46 (44423) - http://www.bohemiancoding.com/sketch -->
    <title>no_mess_icon</title>
    <desc>Created with Sketch.</desc>
    <defs>
        <polygon id="path-1" points="22.5825152 15.464667 22.5825152 0 0 0 0 15.464667 0 30.9293341 22.5825152 30.9293341 22.5825152 15.464667"></polygon>
    </defs>
    <g id="Round-3" stroke="none" stroke-width="1" fill="none" fill-rule="evenodd">
        <g id="Home" transform="translate(-1198.000000, -1234.000000)">
            <g id="no_mess_icon" transform="translate(1198.000000, 1234.000000)">
                <g id="Group-3" transform="translate(7.000000, 22.000000)" fill="#000000">
                    <path d="M6.58266923,12.11497 C5.92428462,12.78067 5.03951538,13.11317 4.15474615,13.11317 C3.26997692,13.11317 2.38520769,12.78067 1.72682308,12.11497 C0.490361538,10.76117 0.832361538,9.12177 1.72059231,7.06937 L4.14851538,1.96847 L6.57643846,6.97137 C7.70559231,9.96107 7.81843846,10.86477 6.58266923,12.11497 M7.37674615,6.54087 L4.57082308,0.72667 C4.50436154,0.62027 4.30497692,0.49007 4.15474615,0.49007 C3.90274615,0.49007 3.81343846,0.57547 3.73520769,0.73297 L0.901592308,6.67457 C0.337361538,7.94227 -0.853407692,10.61557 1.12105385,12.67217 C1.96497692,13.52617 3.04497692,14.00007 4.15474615,14.00007 C5.40020769,14.00007 6.44143846,13.55697 7.24866923,12.68267 C8.86520769,10.99147 8.60836154,9.63697 7.52420769,6.80267 C7.45982308,6.72707 7.40859231,6.63817 7.37674615,6.54087" id="Fill-1"></path>
                </g>
                <path d="M13.5826692,34.11497 C12.9242846,34.78067 12.0395154,35.11317 11.1547462,35.11317 C10.2699769,35.11317 9.38520769,34.78067 8.72682308,34.11497 C7.49036154,32.76117 7.83236154,31.12177 8.72059231,29.06937 L11.1485154,23.96847 L13.5764385,28.97137 C14.7055923,31.96107 14.8184385,32.86477 13.5826692,34.11497" id="Path" fill="#79EAB9"></path>
                <g id="Group-6">
                    <mask id="mask-2" fill="white">
                        <use xlink:href="#path-1"></use>
                    </mask>
                    <g id="Clip-5"></g>
                    <path d="M21.7510303,25.2979023 L21.7461515,25.3352432 C21.7377879,27.1170386 21.1969394,28.8481068 20.2204848,30.214925 C20.1006061,30.4107886 20.1417273,30.7066977 20.3396667,30.8497205 L20.4260909,30.9236977 C20.423303,30.9194705 20.4274848,30.9180614 20.4351515,30.9180614 C20.4581515,30.9180614 20.5132121,30.9293341 20.561303,30.9293341 C20.7801515,30.9293341 20.8456667,30.819425 20.8700606,30.7785614 C21.9921818,29.1729023 22.5741515,27.3065614 22.5825152,25.3359477 L22.5783333,25.2182886 L22.5825152,25.1816523 L22.5825152,13.5270614 C22.5818182,13.5038114 22.5769394,13.4805614 22.5734545,13.4566068 L22.5581212,13.3530386 L22.5734545,13.2494705 C22.5769394,13.2248114 22.5818182,13.1994477 22.5825152,13.1740841 C22.5818182,11.7368114 21.4255455,10.5679705 20.0037273,10.5679705 C19.7472424,10.5679705 19.4782121,10.6172886 19.1806061,10.7187432 L18.261303,11.0322659 L18.261303,5.14297045 C18.261303,5.11337955 18.2571212,5.08519773 18.2522424,5.05701591 L18.2299394,4.93160682 L18.2522424,4.80619773 C18.2571212,4.77801591 18.261303,4.74983409 18.261303,4.72024318 C18.261303,3.28297045 17.1043333,2.113425 15.6825152,2.113425 C15.3256667,2.113425 14.9750909,2.19022045 14.6391515,2.34028864 L13.9073333,2.66790227 L13.6870909,1.89008409 C13.3664848,0.759288636 12.3760909,-0.000211363636 11.2219091,-0.000211363636 C10.0879394,-0.000211363636 9.10242424,0.743788636 8.76927273,1.85062955 L8.54972727,2.58053864 L7.84718182,2.30083409 C7.53493939,2.17683409 7.21642424,2.113425 6.90069697,2.113425 C5.47887879,2.113425 4.32190909,3.28297045 4.32190909,4.72024318 L4.32190909,5.49524318 L4.32190909,6.73453864 L3.40260606,6.42101591 C3.105,6.31956136 2.8359697,6.27024318 2.57948485,6.27024318 C1.24060606,6.27024318 0.117090909,7.33410682 0.0223030303,8.693175 L0.00975757576,8.78476591 C0.00348484848,8.81506136 0.000696969697,8.84535682 0.000696969697,8.87706136 L0.00975757576,25.4458568 L0.00557575758,25.4578341 L0.00557575758,25.4578341 L0,25.5205386 C0.000696969697,27.099425 0.438393939,28.7515841 1.23363636,30.1571523 C1.34584848,30.346675 1.58490909,30.4340386 1.84906061,30.2994705 C1.87972727,30.2839705 1.9710303,30.238175 2.0079697,30.0895159 C2.03863636,29.9662205 2.01912121,29.8224932 1.95639394,29.6949705 C1.2350303,28.5345841 0.837060606,27.0656068 0.837060606,25.5043341 L0.82730303,25.4226068 L0.828,25.2816977 L0.832878788,25.2697205 L0.832878788,25.2690159 L0.837757576,25.2063114 L0.837060606,8.87706136 C0.837060606,7.92240227 1.63509091,7.11569773 2.57948485,7.11569773 C3.52387879,7.11569773 4.32190909,7.92240227 4.32190909,8.87706136 L4.32190909,17.2611523 C4.32190909,17.5063341 4.49824242,17.6838795 4.74009091,17.6838795 C4.96590909,17.6838795 5.15827273,17.4513795 5.15827273,17.2611523 C5.15827273,17.2611523 5.2279697,4.78435682 5.2279697,4.72024318 C5.2279697,3.76558409 6.026,2.95887955 6.97039394,2.95887955 C7.91478788,2.95887955 8.71281818,3.76558409 8.71281818,4.72024318 L8.71281818,17.2611523 C8.71281818,17.5063341 8.88845455,17.6838795 9.131,17.6838795 C9.37354545,17.6838795 9.54918182,17.5063341 9.54918182,17.2611523 L9.54918182,2.60660682 C9.54918182,2.578425 9.545,2.54460682 9.53593939,2.50374318 L9.49690909,2.33183409 L9.54290909,2.16133409 C9.74990909,1.39901591 10.4559394,0.845243182 11.2219091,0.845243182 C12.166303,0.845243182 12.9643333,1.65194773 12.9643333,2.60660682 C12.9643333,2.65381136 12.9740909,2.70312955 12.9936061,2.75808409 L13.0340303,2.872925 L13.0340303,17.2611523 C13.0340303,17.5063341 13.2103636,17.6838795 13.4522121,17.6838795 C13.6780303,17.6838795 13.8703939,17.4513795 13.8703939,17.2611523 L13.8703939,4.98797045 L13.9108182,4.87383409 C13.9303333,4.81747045 13.9400909,4.76744773 13.9400909,4.72024318 C13.9400909,3.76558409 14.7381212,2.95887955 15.6825152,2.95887955 C16.6269091,2.95887955 17.4249394,3.76558409 17.4249394,4.72024318 C17.4249394,4.74983409 17.4291212,4.77801591 17.434,4.80619773 L17.456303,4.93160682 L17.434,5.05701591 C17.4291212,5.08519773 17.4249394,5.11337955 17.4249394,5.14297045 L17.4249394,17.2611523 C17.4249394,17.5063341 17.6005758,17.6838795 17.8431212,17.6838795 C18.0661515,17.6838795 18.261303,17.4534932 18.261303,17.1906977 L18.261303,13.1747886 C18.261303,12.242675 19.043303,11.4838795 20.0037273,11.4838795 C20.9481212,11.4838795 21.7461515,12.2905841 21.7461515,13.2452432 L21.7559091,13.327675 L21.7552121,13.4685841 L21.7510303,13.4805614 L21.7510303,13.4805614 L21.7454545,13.5432659 L21.7510303,25.2979023 Z" id="Fill-4" fill="#000000" mask="url(#mask-2)"></path>
                </g>
            </g>
        </g>
    </g>
</svg>

<svg xmlns="http://www.w3.org/2000/svg" width="23" height="36" xmlns:xlink="http://www.w3.org/1999/xlink"><title>no_mess_icon</title><desc>Created with Sketch.</desc><defs><path id="a" d="M22.58 15.46V0H0v30.93h22.58V15.46z"/></defs><g fill="none"><g><g><g fill="#000"><path d="M13.58 34.1c-.66.68-1.54 1-2.43 1-.88 0-1.76-.32-2.42-1-1.24-1.34-.9-2.98 0-5.03l2.42-5.1 2.43 5c1.13 3 1.24 3.9 0 5.14m.8-5.56l-2.8-5.8c-.08-.12-.28-.25-.43-.25-.25 0-.34.08-.4.23L7.9 28.67c-.56 1.27-1.75 3.95.22 6 .84.86 1.92 1.33 3.03 1.33 1.25 0 2.3-.44 3.1-1.32 1.62-1.7 1.36-3.04.27-5.88-.06-.07-.1-.16-.14-.26"/></g><path fill="#79EAB9" d="M13.58 34.1c-.66.68-1.54 1-2.43 1-.88 0-1.76-.32-2.42-1-1.24-1.34-.9-2.98 0-5.03l2.42-5.1 2.43 5c1.13 3 1.24 3.9 0 5.14"/><g transform="translate(-1198 -1234) translate(1198 1234)"><mask id="b"><use xlink:href="#a"/></mask><path fill="#000" d="M21.75 25.3v.04c0 1.78-.55 3.5-1.53 4.87-.12.2-.08.5.12.65l.1.07c-.02 0 0 0 0 0 .02 0 .07 0 .12 0 .22 0 .3-.1.3-.14 1.13-1.6 1.7-3.47 1.72-5.44V13.53c0-.03 0-.05 0-.07l-.02-.1v-.1c.02-.04.02-.06.02-.1 0-1.42-1.15-2.6-2.58-2.6-.25 0-.52.06-.82.16l-.92.3V5.15c0-.03 0-.05 0-.08l-.03-.13.02-.12c0-.02 0-.05 0-.08 0-1.44-1.15-2.6-2.57-2.6-.35 0-.7.07-1.04.22l-.73.33-.2-.78C13.36.75 12.37 0 11.2 0 10.1 0 9.1.74 8.77 1.85l-.22.73-.7-.28c-.32-.12-.63-.2-.95-.2-1.42 0-2.58 1.18-2.58 2.62v2.01l-.92-.3c-.3-.1-.56-.16-.82-.16C1.24 6.27.12 7.33.02 8.7v.08c-.02.04-.02.07-.02.1v16.64c0 1.58.44 3.23 1.23 4.64.12.2.35.27.62.14.03-.02.12-.06.16-.2.04-.13.02-.28-.04-.4-.72-1.17-1.12-2.63-1.12-4.2V8.9c0-.96.8-1.76 1.74-1.76s1.74.8 1.74 1.76v8.38c0 .25.18.42.42.42.23 0 .42-.23.42-.42 0 0 .07-12.48.07-12.54 0-.95.8-1.76 1.74-1.76s1.74.8 1.74 1.76v12.54c0 .25.2.42.43.42.24 0 .42-.17.42-.42V2.6c0-.02 0-.06 0-.1l-.05-.17.04-.17c.2-.76.92-1.3 1.68-1.3.95 0 1.74.8 1.74 1.75 0 .05 0 .1.03.16l.03.1v14.4c0 .25.18.42.42.42.23 0 .42-.23.42-.42V5l.04-.13c.03-.05.04-.1.04-.15 0-.95.8-1.76 1.74-1.76.95 0 1.74.8 1.74 1.76 0 .03 0 .06 0 .1l.04.1-.03.14c0 .03 0 .05 0 .08v12.12c0 .25.17.42.4.42.24 0 .43-.23.43-.5v-4c0-.94.78-1.7 1.74-1.7.95 0 1.75.8 1.75 1.77V25.3z" mask="url(#b)"/></g></g></g></g></svg>
